X: 3787
T: Bishop, The
R: polka
M: 2/4
K: Amajor
|:Aa- ag-|gf- fe|fa ec|dB AG|
Aa 2g-|gf- fe|fa B^d|e2 E2:|
|:ed- dc/B/|ce- ed|ca Ac|BE E2|
Ac- cB/A/|Ba gf|ed cB|A2 A,2:|

